X: 39463
T: Tarbolton, The
R: reel
M: 4/4
K: Edorian
D^D|:EB eB ed BA|GB AF GF ED|DA dA dA GF|GB AF GF D^D|
EB eB ef ge|fe df ed BA|G2 BG FG A=c|1 BG AF GE ED:|2 BG AF GE E2||
ef ge be ge|be gf e4|(3ddd fd ad fd|fg fe dB AF|
G2 BG FG AF|E2 ef gf ed|B2 =cB AG A=c|BG AF GE E2:|

